X: 916
T: The Ranting Rake.
B:O'Neill's 916
Z:Transcribed by Tom Keays (htkeays@mailbox.syr.edu)
Z:abc 1.6
M:6/8
R:Jig
L:1/8
K:G
B/2A/2 | G>AG G2g | dBd dBd | ege dBd | ABA ABA |
G>AG G2g | dBd dBd | ege dBd | G>AG G2 :|
|| G/2B/2 | d3 e3 | d>ed dBG | cdc BdB | AGA BGE |
d3 B3 | {B}AGA Bge | dBd gdB | G>AG G2 :|


